X:350
T: ES IST NICHTS LUSTGER AUF DER WELT
N: F0611
O: Europa, Mitteleuropa, Deutschland
R: Soldaten - Lied
M: 6/8
L: 1/8
K: F
c | A2AABc | F2FF2
A | G2GGAB | B3Az
A | G2cc2c | =B2df2
f | e2cdc=B | c3z2
e | f2cA2F | d2dd2
d | c2ccBA | A3Gz
G | B2BA2F | fedcz
B | A2Ac2c | Az2
d3 | c2Ac2c | Fz4

